X:1
T:Title
%%score { 1 | 2 }
L:1/8
Q:1/4=112
M:4/4
K:F
V:1 treble nm="Grand Piano"
V:2 bass 
V:1
 A4 A2 A2 | c2 A2 [B,EG]2 [A,F]2 | [DFB]6 [CFA]2 | [CEG]4 [A,DF]4 | [CEG]6 z2 | %5
w: M.~R.~Murray * *|||||
 [CGB]4 [CFA]2 [CEG]2 | [CFc]2 [CFA]2 [A,F]2 [B,FG]2 | [CFA]4 [B,EG]4 | [A,F]6 z2 | %9
w: ||||
 [EG]4 [EG]2 [FA]2 | [Ac]2 [GB]2 [FA]2 [EG]2 | A6 z2 | G4 A2 =B2 | [Ec]6 z2 | A4 B2 c2 | %15
w: ||||||
 d2 d2 c2 F2 | [FA]4 [EG]4 | [CF]6 z2 |] %18
w: |||
V:2
 [F,CF]4 [F,CF]2 [F,CF]2 | [F,A,F]2 [F,CF]2 C,2 D,2 | B,,6 F,2 | C,4 D,4 | C,6 z2 | C,4 C,2 B,,2 | %6
 A,,2 A,,2 D,2 D,2 | C,4 C,4 | F,6 z2 | [C,C]4 [C,C]2 [C,C]2 | [C,C]2 [C,C]2 [C,C]2 [C,C]2 | %11
 [F,CF]6 z2 | [G,CE]4 [G,F]2 [G,F]2 | [C,G,]6 z2 | [F,CF]4 [G,CE]2 [A,CF]2 | %15
 [B,F]2 [B,F]2 [A,CF]2[K:bass] [D,=B,]2 | [C,C]4 [C,B,]4 | [F,A,]6 z2 |] %18

